X: 1538
T: Herb Gimbert's Jig
B: australian traditional tunes wiki
M:6/8
L:1/8
R: Jig
Q: 3/8=100
K:A
V:1 
F|:"A"E2AA2c|B2AA2f|e2c cBA|"E7"c2B BAF|
"A"E2AA2c|B2AA2f|ecA "E7"BcB|1"A"A3A2F:|2"A"A3||
|:c2B|A2Ac2e|"D"a3 agf|"A"e2c cBA|
"E7"c>z>B- BcB|"A"A2Ac2e|"D"a3f3|"A"efe "E7"dcB|"A"A3:|
% abcbook-tune_id 6342d53afd006262507daff6


% abcbook-boost 0
% abcbook-tablature 
% abcbook-transpose 
% abcbook-lastupdated 1665324369971
% abcbook-soundfonts 
% abcbook-repeats 1
% NFF Book 2006

